X:11
T:The Norbrook Fiddle
R:jig
C:Paul Cranford
O:Cape Breton Island
S:http://www.cranfordpub.com
D:The Lighthouse, Paul Cranford, 1996
B:The Lighthouse Collection, Paul Stewart Cranford
Z:psc, (re-formatted,updated 9/20/04)
N:
H:                                                    copyrights Cranford Publications, SOCAN
L:1/8
Q:300
M:6/8
K:D
E|DA,A, FDF|BAA ABc|dAd fef|baa agf|gba gfe|
fdB A2 c|[1dAF FEF|BAA A2:|[2dAF GFE|D3 D2||
||f|:baa faa|eaa def|gba gfe|fdB A2f|
baa faa|eaa def|g2 e edc|[1d3 dfa:|[2d3 d2|]
